src/assets/images/blocks/ecommerce/storefront/storefront-1-20.svg

<svg fill="none" height="78" viewBox="0 0 134 78" width="134" xmlns="http://www.w3.org/2000/svg"><g fill="#212121"><path clip-rule="evenodd" d="m26.6296 16.5456c-.4955-.2555-1.0578-.39-1.63-.3899-.5723-.0001-1.1345.1344-1.6302.3899l-19.326 9.9664c-.49558.2556-.90709.6231-1.19322 1.0658-.28611.4427-.43673.9448-.43672 1.456v19.9326c-.00001.5111.15061 1.0132.43672 1.4559.28611.4425.69764.8102 1.19322 1.0657l19.326 9.9664c.4956.2555 1.0578.3901 1.6301.3901s1.1344-.1346 1.6301-.3901l19.326-9.9664c.4957-.2555.9071-.6232 1.1931-1.0657.2861-.4427.4368-.9448.4368-1.4559v-19.9326c0-.5112-.1507-1.0133-.4368-1.456-.286-.4427-.6974-.8102-1.1931-1.0658zm-4.4666-1.8667c.8626-.4444 1.8408-.6786 2.8366-.6789h.001c.9959.0004 1.9742.2345 2.8367.6789l19.326 9.9664c.8613.4458 1.5766 1.0858 2.0746 1.8559.4977.7701.7606 1.6433.7621 2.5326v19.9326c-.0018.8893-.2647 1.7627-.7626 2.5329-.498.7699-1.2136 1.41-2.0751 1.8556l-19.326 9.9664c-.8625.4447-1.8408.6787-2.8367.6787-.9958 0-1.9741-.234-2.8366-.6787l-19.32608-9.9664c-.86141-.4458-1.57677-1.0857-2.0746-1.8559-.497823-.7699-.76068747-1.6433-.76232-2.5326v-19.9326c.00158164-.8893.264393-1.7625.762174-2.5327.497786-.7701 1.213106-1.41 2.074496-1.8558zm-10.2906 22.8136c.294-.0007.5851.0506.8567.1513.2715.1004.518.2481.7252.4342l2.9942 2.6744 6.1476-5.4911c.6377-.5686 1.5019-.888 2.4029-.888s1.7653.3194 2.4029.888l8.548 7.6351 2.6419-2.3598c.4199-.3742.9886-.5843 1.5819-.5843.593 0 1.1619.2101 1.5816.5843l3.4607 3.0936v-13.5501c0-.4575-.1349-.907-.3913-1.3032-.2561-.3962-.6245-.7253-1.0681-.9541l-17.2985-8.9208c-.4436-.2288-.9471-.3493-1.4594-.3493s-1.0156.1205-1.4593.3493l-17.2988 8.9208c-.44362.2288-.81203.5579-1.06819.9541-.25617.3962-.39106.8457-.39116 1.3032v12.9177l5.50835-4.9201c.2073-.1863.454-.3339.7257-.4342.2717-.1004.5631-.1519.8571-.151zm-7.09115 8.4544v1.9759c.00018.4196.11383.8329.3313 1.2048.21746.3722.53228.6916.91767.9316l8.76788-7.8318-2.4308-2.1712c-.065-.058-.1422-.104-.2272-.1355-.0849-.0315-.176-.0477-.268-.0477-.0919 0-.183.0162-.2679.0477-.085.0315-.1622.0775-.2272.1355zm39.18605 4.1108-6.3657-5.6871 2.076-1.8554c.1314-.1173.3095-.1832.4954-.1832.1857 0 .3639.0659.4952.1832l4.5479 4.0622v1.3439c-.0003.4196-.1137.8329-.3311 1.2049-.2174.3719-.5322.6915-.9177.9315zm-8.0161-4.2122-1.6503-1.4738-8.548-7.6349c-.1995-.178-.4698-.2778-.7517-.2778s-.5522.0998-.7517.2778l-6.1476 5.4911-1.6506 1.4743-8.33411 7.4432 15.42381 7.9544c.4437.2288.947.3493 1.4593.3493s1.0158-.1205 1.4594-.3493l15.4238-7.9544z" fill-rule="evenodd"/><path d="m79.792 26.3374c.56.588.84 1.288.84 2.1v11.256c0 .812-.28 1.512-.84 2.1l-1.344 1.344c-.56.56-1.246.84-2.058.84h-6.888c-1.12 0-1.68.56-1.68 1.68v6.972c0 1.12-.56 1.68-1.68 1.68h-.462c-1.12 0-1.68-.56-1.68-1.68v-26.796c0-1.12.56-1.68 1.68-1.68h10.71c.812 0 1.498.28 2.058.84zm-2.94 3.318c0-1.12-.56-1.68-1.68-1.68h-5.628c-1.12 0-1.68.56-1.68 1.68v8.82c0 1.12.56 1.68 1.68 1.68h5.586c1.12 0 1.68-.56 1.68-1.68z"/><path d="m98.0758 44.7754c0 1.12-.56 1.68-1.68 1.68h-6.468c-1.12 0-1.68.56-1.68 1.68v.588c0 1.12.56 1.68 1.68 1.68h6.468c1.12 0 1.68.56 1.68 1.68v.462c0 1.12-.56 1.68-1.68 1.68h-7.728c-.812 0-1.498-.294-2.058-.882l-1.344-1.344c-.56-.56-.84-1.246-.84-2.058v-12.18c0-.812.28-1.498.84-2.058l1.344-1.344c.56-.56 1.246-.84 2.058-.84h5.166c.812 0 1.498.28 2.058.84l1.344 1.344c.56.56.84 1.246.84 2.058zm-9.828-3.36c0 1.12.56 1.68 1.68 1.68h2.646c1.12 0 1.68-.56 1.68-1.68v-2.436c0-1.12-.56-1.68-1.68-1.68h-2.646c-1.12 0-1.68.56-1.68 1.68z"/><path d="m106.552 54.2254c-.812 0-1.498-.28-2.058-.84l-1.386-1.386c-.56-.56-.84-1.246-.84-2.058v-4.872c0-.42.07-.784.21-1.092.14-.336.364-.658.672-.966l1.344-1.344c.56-.56 1.246-.84 2.058-.84h3.99c1.12 0 1.68-.56 1.68-1.68v-.126c0-1.12-.56-1.68-1.68-1.68h-6.468c-1.12 0-1.68-.56-1.68-1.68v-.462c0-1.12.56-1.68 1.68-1.68h7.686c.812 0 1.498.28 2.058.84l1.386 1.386c.56.56.84 1.246.84 2.058v14.742c0 1.12-.56 1.68-1.68 1.68zm5.67-8.274c0-1.12-.56-1.68-1.68-1.68h-2.772c-1.12 0-1.68.56-1.68 1.68v3.15c0 1.12.56 1.68 1.68 1.68h2.772c1.12 0 1.68-.56 1.68-1.68z"/><path d="m126.522 48.4714c-.336-.616-.714-.924-1.134-.924-.252 0-.462.126-.63.378s-.252.616-.252 1.092v3.57c0 1.12-.56 1.68-1.68 1.68h-.462c-1.12 0-1.68-.56-1.68-1.68v-27.216c0-1.12.56-1.68 1.68-1.68h.462c1.12 0 1.68.56 1.68 1.68v11.844c0 .448.07.798.21 1.05.168.252.378.378.63.378.392 0 .798-.266 1.218-.798l2.52-3.234c.56-.728 1.232-1.092 2.016-1.092h.63c.448 0 .798.098 1.05.294s.378.448.378.756c0 .28-.112.602-.336.966l-4.074 6.048c-.252.364-.378.756-.378 1.176 0 .392.098.77.294 1.134l4.494 8.358c.168.336.252.644.252.924 0 .336-.126.602-.378.798s-.588.294-1.008.294h-.882c-.924 0-1.596-.392-2.016-1.176z"/></g></svg>

<svg width="134" height="78" viewBox="0 0 134 78" fill="none" xmlns="http://www.w3.org/2000/svg">
<path fill-rule="evenodd" clip-rule="evenodd" d="M26.6296 16.5456C26.1341 16.2901 25.5718 16.1556 24.9996 16.1557C24.4273 16.1556 23.8651 16.2901 23.3694 16.5456L4.0434 26.512C3.54782 26.7676 3.13631 27.1351 2.85018 27.5778C2.56407 28.0205 2.41345 28.5226 2.41346 29.0338V48.9664C2.41345 49.4775 2.56407 49.9796 2.85018 50.4223C3.13629 50.8648 3.54782 51.2325 4.0434 51.488L23.3694 61.4544C23.865 61.7099 24.4272 61.8445 24.9995 61.8445C25.5718 61.8445 26.1339 61.7099 26.6296 61.4544L45.9556 51.488C46.4513 51.2325 46.8627 50.8648 47.1487 50.4223C47.4348 49.9796 47.5855 49.4775 47.5855 48.9664V29.0338C47.5855 28.5226 47.4348 28.0205 47.1487 27.5778C46.8627 27.1351 46.4513 26.7676 45.9556 26.512L26.6296 16.5456ZM22.163 14.6789C23.0256 14.2345 24.0038 14.0003 24.9996 14H25.0006C25.9965 14.0004 26.9748 14.2345 27.8373 14.6789L47.1633 24.6453C48.0246 25.0911 48.7399 25.7311 49.2379 26.5012C49.7356 27.2713 49.9985 28.1445 50 29.0338V48.9664C49.9982 49.8557 49.7353 50.7291 49.2374 51.4993C48.7394 52.2692 48.0238 52.9093 47.1623 53.3549L27.8363 63.3213C26.9738 63.766 25.9955 64 24.9996 64C24.0038 64 23.0255 63.766 22.163 63.3213L2.83692 53.3549C1.97551 52.9091 1.26015 52.2692 0.76232 51.499C0.264497 50.7291 0.00163253 49.8557 0 48.9664V29.0338C0.00158164 28.1445 0.264393 27.2713 0.762174 26.5011C1.25996 25.731 1.97528 25.0911 2.83667 24.6453L22.163 14.6789ZM11.8724 37.4925C12.1664 37.4918 12.4575 37.5431 12.7291 37.6438C13.0006 37.7442 13.2471 37.8919 13.4543 38.078L16.4485 40.7524L22.5961 35.2613C23.2338 34.6927 24.098 34.3733 24.999 34.3733C25.9 34.3733 26.7643 34.6927 27.4019 35.2613L35.9499 42.8964L38.5918 40.5366C39.0117 40.1624 39.5804 39.9523 40.1737 39.9523C40.7667 39.9523 41.3356 40.1624 41.7553 40.5366L45.216 43.6302V30.0801C45.216 29.6226 45.0811 29.1731 44.8247 28.7769C44.5686 28.3807 44.2002 28.0516 43.7566 27.8228L26.4581 18.902C26.0145 18.6732 25.511 18.5527 24.9987 18.5527C24.4864 18.5527 23.9831 18.6732 23.5394 18.902L6.2406 27.8228C5.79698 28.0516 5.42857 28.3807 5.17241 28.7769C4.91624 29.1731 4.78135 29.6226 4.78125 30.0801V42.9978L10.2896 38.0777C10.4969 37.8914 10.7436 37.7438 11.0153 37.6435C11.287 37.5431 11.5784 37.4916 11.8724 37.4925ZM4.78125 45.9469V47.9228C4.78143 48.3424 4.89508 48.7557 5.11255 49.1276C5.33001 49.4998 5.64483 49.8192 6.03022 50.0592L14.7981 42.2274L12.3673 40.0562C12.3023 39.9982 12.2251 39.9522 12.1401 39.9207C12.0552 39.8892 11.9641 39.873 11.8721 39.873C11.7802 39.873 11.6891 39.8892 11.6042 39.9207C11.5192 39.9522 11.442 39.9982 11.377 40.0562L4.78125 45.9469ZM43.9673 50.0577L37.6016 44.3706L39.6776 42.5152C39.809 42.3979 39.9871 42.332 40.173 42.332C40.3587 42.332 40.5369 42.3979 40.6682 42.5152L45.2161 46.5774V47.9213C45.2158 48.3409 45.1024 48.7542 44.885 49.1262C44.6676 49.4981 44.3528 49.8177 43.9673 50.0577ZM35.9512 45.8455L34.3009 44.3717L25.7529 36.7368C25.5534 36.5588 25.2831 36.459 25.0012 36.459C24.7193 36.459 24.449 36.5588 24.2495 36.7368L18.1019 42.2279L16.4513 43.7022L8.11719 51.1454L23.541 59.0998C23.9847 59.3286 24.488 59.4491 25.0003 59.4491C25.5126 59.4491 26.0161 59.3286 26.4597 59.0998L41.8835 51.1454L35.9512 45.8455Z" fill="#212121"/>
<path d="M79.792 26.3374C80.352 26.9254 80.632 27.6254 80.632 28.4374V39.6934C80.632 40.5054 80.352 41.2054 79.792 41.7934L78.448 43.1374C77.888 43.6974 77.202 43.9774 76.39 43.9774H69.502C68.382 43.9774 67.822 44.5374 67.822 45.6574V52.6294C67.822 53.7494 67.262 54.3094 66.142 54.3094H65.68C64.56 54.3094 64 53.7494 64 52.6294V25.8334C64 24.7134 64.56 24.1534 65.68 24.1534H76.39C77.202 24.1534 77.888 24.4334 78.448 24.9934L79.792 26.3374ZM76.852 29.6554C76.852 28.5354 76.292 27.9754 75.172 27.9754H69.544C68.424 27.9754 67.864 28.5354 67.864 29.6554V38.4754C67.864 39.5954 68.424 40.1554 69.544 40.1554H75.13C76.25 40.1554 76.81 39.5954 76.81 38.4754L76.852 29.6554Z" fill="#212121"/>
<path d="M98.0758 44.7754C98.0758 45.8954 97.5158 46.4554 96.3958 46.4554H89.9278C88.8078 46.4554 88.2478 47.0154 88.2478 48.1354V48.7234C88.2478 49.8434 88.8078 50.4034 89.9278 50.4034H96.3958C97.5158 50.4034 98.0758 50.9634 98.0758 52.0834V52.5454C98.0758 53.6654 97.5158 54.2254 96.3958 54.2254H88.6678C87.8558 54.2254 87.1698 53.9314 86.6098 53.3434L85.2658 51.9994C84.7058 51.4394 84.4258 50.7534 84.4258 49.9414V37.7614C84.4258 36.9494 84.7058 36.2634 85.2658 35.7034L86.6098 34.3594C87.1698 33.7994 87.8558 33.5194 88.6678 33.5194H93.8338C94.6458 33.5194 95.3318 33.7994 95.8918 34.3594L97.2358 35.7034C97.7958 36.2634 98.0758 36.9494 98.0758 37.7614V44.7754ZM88.2478 41.4154C88.2478 42.5354 88.8078 43.0954 89.9278 43.0954H92.5738C93.6938 43.0954 94.2538 42.5354 94.2538 41.4154V38.9794C94.2538 37.8594 93.6938 37.2994 92.5738 37.2994H89.9278C88.8078 37.2994 88.2478 37.8594 88.2478 38.9794V41.4154Z" fill="#212121"/>
<path d="M106.552 54.2254C105.74 54.2254 105.054 53.9454 104.494 53.3854L103.108 51.9994C102.548 51.4394 102.268 50.7534 102.268 49.9414V45.0694C102.268 44.6494 102.338 44.2854 102.478 43.9774C102.618 43.6414 102.842 43.3194 103.15 43.0114L104.494 41.6674C105.054 41.1074 105.74 40.8274 106.552 40.8274H110.542C111.662 40.8274 112.222 40.2674 112.222 39.1474V39.0214C112.222 37.9014 111.662 37.3414 110.542 37.3414H104.074C102.954 37.3414 102.394 36.7814 102.394 35.6614V35.1994C102.394 34.0794 102.954 33.5194 104.074 33.5194H111.76C112.572 33.5194 113.258 33.7994 113.818 34.3594L115.204 35.7454C115.764 36.3054 116.044 36.9914 116.044 37.8034V52.5454C116.044 53.6654 115.484 54.2254 114.364 54.2254H106.552ZM112.222 45.9514C112.222 44.8314 111.662 44.2714 110.542 44.2714H107.77C106.65 44.2714 106.09 44.8314 106.09 45.9514V49.1014C106.09 50.2214 106.65 50.7814 107.77 50.7814H110.542C111.662 50.7814 112.222 50.2214 112.222 49.1014V45.9514Z" fill="#212121"/>
<path d="M126.522 48.4714C126.186 47.8554 125.808 47.5474 125.388 47.5474C125.136 47.5474 124.926 47.6734 124.758 47.9254C124.59 48.1774 124.506 48.5414 124.506 49.0174V52.5874C124.506 53.7074 123.946 54.2674 122.826 54.2674H122.364C121.244 54.2674 120.684 53.7074 120.684 52.5874V25.3714C120.684 24.2514 121.244 23.6914 122.364 23.6914H122.826C123.946 23.6914 124.506 24.2514 124.506 25.3714V37.2154C124.506 37.6634 124.576 38.0134 124.716 38.2654C124.884 38.5174 125.094 38.6434 125.346 38.6434C125.738 38.6434 126.144 38.3774 126.564 37.8454L129.084 34.6114C129.644 33.8834 130.316 33.5194 131.1 33.5194H131.73C132.178 33.5194 132.528 33.6174 132.78 33.8134C133.032 34.0094 133.158 34.2614 133.158 34.5694C133.158 34.8494 133.046 35.1714 132.822 35.5354L128.748 41.5834C128.496 41.9474 128.37 42.3394 128.37 42.7594C128.37 43.1514 128.468 43.5294 128.664 43.8934L133.158 52.2514C133.326 52.5874 133.41 52.8954 133.41 53.1754C133.41 53.5114 133.284 53.7774 133.032 53.9734C132.78 54.1694 132.444 54.2674 132.024 54.2674H131.142C130.218 54.2674 129.546 53.8754 129.126 53.0914L126.522 48.4714Z" fill="#212121"/>
</svg>
